svgs/regular/hand-dots.svg

<svg xmlns="http://www.w3.org/2000/svg" viewBox="0 0 512 512"><!--! Font Awesome Pro 6.0.0-alpha3 by @fontawesome - https://fontawesome.com License - https://fontawesome.com/license (Commercial License) --><path d="M304 352c-8.836 0-16 7.162-16 16c0 8.836 7.164 16 16 16s16-7.164 16-16C320 359.2 312.8 352 304 352zM255.9 400C247.1 400 240 407.2 240 416c0 8.836 7.164 16 16 16s15.93-7.164 15.93-16C271.9 407.2 264.8 400 255.9 400zM192 352c-8.836 0-16 7.162-16 16C176 376.8 183.2 384 192 384s16-7.164 16-16C208 359.2 200.8 352 192 352zM256 304c-8.836 0-16 7.162-16 16c0 8.836 7.099 16 15.93 16s16-7.164 16-16C271.9 311.2 264.8 304 256 304zM368 304C359.2 304 352 311.2 352 320c0 8.836 7.164 16 16 16S384 328.8 384 320C384 311.2 376.8 304 368 304zM336 400c-8.836 0-16 7.162-16 16c0 8.836 7.164 16 16 16S352 424.8 352 416C352 407.2 344.8 400 336 400zM408 80c-3.994 0-7.91 .3262-11.73 .9551c-9.586-28.51-36.57-49.11-68.27-49.11c-6.457 0-12.72 .8555-18.68 2.457C296.6 13.73 273.9 0 248 0C222.1 0 199.3 13.79 186.6 34.44C180.7 32.85 174.5 32 168.1 32C128.4 32 96.01 64.3 96.01 104v121.6C90.77 224.6 85.41 224 80.01 224c-.0026 0 .0026 0 0 0c-43.58 0-80.01 35.15-80.01 80.07c0 20.29 7.558 39.52 21.45 54.45l81.25 87.24C141.9 487.9 197.4 512 254.9 512h33.08C393.9 512 480 425.9 480 320V152C480 112.3 447.7 80 408 80zM432 320c0 79.41-64.59 144-143.1 144H254.9c-44.41 0-86.83-18.46-117.1-50.96l-79.76-85.63C51.87 320.7 48.66 312 48.66 303.4c0-22.11 18.46-31.4 31.35-31.4c8.561 0 17.1 3.416 23.42 10.18l26.72 28.69c1.65 1.771 3.738 2.564 5.79 2.564c4.106 0 8.065-3.172 8.065-8.017V104c0-13.25 10.75-24 23.1-24s24 10.75 24 24V256c0 8.836 7.164 16 16 16S224 264.8 224 256l.0018-184c0-13.25 10.75-24 24-24s24 10.75 24 24V256c0 8.836 7.162 16 15.1 16c8.838 0 15.99-7.164 15.99-16l.0073-152.2c0-13.25 10.75-24 24-24s24 10.75 24 24V256c0 8.836 7.164 16 16 16s16-7.164 16-16V152c0-13.25 10.75-24 24-24C421.3 128 432 138.8 432 152V320z"/></svg>

<svg xmlns="http://www.w3.org/2000/svg" viewBox="0 0 512 512"><!-- Font Awesome Pro 6.0.0-alpha2 by @fontawesome - https://fontawesome.com License - https://fontawesome.com/license (Commercial License) --><path d="M303.999 352C295.163 352 287.999 359.162 287.999 368C287.999 376.836 295.163 384 303.999 384S319.999 376.836 319.999 368C319.999 359.162 312.835 352 303.999 352ZM255.999 400C247.163 400 239.999 407.162 239.999 416C239.999 424.836 247.163 432 255.999 432S271.999 424.836 271.999 416C271.999 407.162 264.835 400 255.999 400ZM191.999 352C183.163 352 175.999 359.162 175.999 368C175.999 376.836 183.163 384 191.999 384S207.999 376.836 207.999 368C207.999 359.162 200.835 352 191.999 352ZM255.999 304C247.163 304 239.999 311.162 239.999 320C239.999 328.836 247.163 336 255.999 336S271.999 328.836 271.999 320C271.999 311.162 264.835 304 255.999 304ZM367.999 304C359.163 304 351.999 311.162 351.999 320C351.999 328.836 359.163 336 367.999 336S383.999 328.836 383.999 320C383.999 311.162 376.835 304 367.999 304ZM335.999 400C327.163 400 319.999 407.162 319.999 416C319.999 424.836 327.163 432 335.999 432S351.999 424.836 351.999 416C351.999 407.162 344.835 400 335.999 400ZM408.001 80C404.007 80 400.091 80.326 396.273 80.955C386.687 52.441 359.702 31.844 328.001 31.844C321.544 31.844 315.28 32.699 309.321 34.301C296.632 13.734 273.892 0 248.003 0C222.058 0 199.275 13.795 186.601 34.436C180.665 32.846 174.433 32 168.003 32C128.304 32 96.005 64.299 96.005 104V225.635C90.773 224.561 85.417 224.006 80.015 224.006C80.012 224.006 80.01 224.006 80.007 224.006C36.423 224.006 0 259.156 0 304.071C0 324.358 7.558 343.596 21.454 358.523L102.708 445.762C141.943 487.861 197.419 512 254.925 512C254.925 512 285.962 512 288.001 512C393.87 512 479.999 425.869 479.999 320V152C479.999 112.299 447.7 80 408.001 80ZM431.999 320C431.999 399.406 367.407 464 288.001 464C285.423 464 254.925 464 254.925 464C210.513 464 168.099 445.543 137.829 413.043L58.069 327.408C51.868 320.75 48.663 312.004 48.663 303.409C48.663 281.301 67.121 272.006 80.009 272.006C88.569 272.006 97.11 275.422 103.427 282.188L130.15 310.879C131.799 312.65 133.888 313.443 135.94 313.443C140.046 313.443 144.005 310.27 144.005 305.426V104C144.005 90.75 154.753 80 168.003 80S192.003 90.75 192.003 104V256C192.003 264.836 199.167 272 208.003 272S224.003 264.836 224.003 256V72C224.003 58.75 234.753 48 248.003 48S272.003 58.75 272.003 72V256C272.003 264.836 279.165 272 288.001 272C296.839 272 304.001 264.836 304.001 256V103.844C304.001 90.594 314.751 79.844 328.001 79.844S352.001 90.594 352.001 103.844V256C352.001 264.836 359.165 272 368.001 272S384.001 264.836 384.001 256V152C384.001 138.75 394.751 128 408.001 128C421.249 128 431.999 138.75 431.999 152V320Z"/></svg>
